src/lib/packages/icons/src/assets/filled/package.svg

<svg width="24" height="24" viewBox="0 0 24 24" fill="none" xmlns="http://www.w3.org/2000/svg">
<path d="M20.7 10.75H3.30005C3.13405 10.75 3 10.884 3 11.05V18C3 20 4 21 6 21H18C20 21 21 20 21 18V11.05C21 10.884 20.866 10.75 20.7 10.75ZM10 17.75H7C6.586 17.75 6.25 17.414 6.25 17C6.25 16.586 6.586 16.25 7 16.25H10C10.414 16.25 10.75 16.586 10.75 17C10.75 17.414 10.414 17.75 10 17.75ZM12.75 8.95001V3.29999C12.75 3.13399 12.884 3 13.05 3H16.74C19 3 19.25 3.88999 19.62 5.17999L20.674 8.86801C20.729 9.06001 20.585 9.25 20.386 9.25H13.05C12.884 9.25 12.75 9.11601 12.75 8.95001ZM3.32605 8.86801L4.38 5.17999C4.75 3.88999 5.00001 3 7.26001 3H10.95C11.116 3 11.25 3.13399 11.25 3.29999V8.95001C11.25 9.11601 11.116 9.25 10.95 9.25H3.61401C3.41501 9.25 3.27105 9.05901 3.32605 8.86801Z" fill="currentColor"/>
</svg>

<svg xmlns="http://www.w3.org/2000/svg" width="24" height="24" fill="none"><path fill="currentColor" d="M20.7 10.75H3.3a.3.3 0 0 0-.3.3V18c0 2 1 3 3 3h12c2 0 3-1 3-3v-6.95a.3.3 0 0 0-.3-.3Zm-10.7 7H7a.75.75 0 0 1 0-1.5h3a.75.75 0 0 1 0 1.5Zm2.75-8.8V3.3a.3.3 0 0 1 .3-.3h3.69c2.26 0 2.51.89 2.88 2.18l1.054 3.688a.3.3 0 0 1-.288.382H13.05a.3.3 0 0 1-.3-.3Zm-9.424-.082L4.38 5.18C4.75 3.89 5 3 7.26 3h3.69a.3.3 0 0 1 .3.3v5.65a.3.3 0 0 1-.3.3H3.614a.3.3 0 0 1-.288-.382Z"/></svg>
